digital/Imbassy-X-Files/65ef0811cc67439994568a45/65ef0811cc674399945691fb_DCG_Expeditions_logo.svg

<svg fill="none" height="28" viewBox="0 0 205 28" width="205" xmlns="http://www.w3.org/2000/svg" xmlns:xlink="http://www.w3.org/1999/xlink"><clipPath id="a"><path d="m0 0h205v28h-205z"/></clipPath><g clip-path="url(#a)" fill="#000"><path d="m7.81817 0h-5.04208v.00381992h-2.77609v11.23798008h5.55217v-5.64002h2.266c3.09273 0 5.59963 2.523 5.59963 5.63812 0 3.115-2.5069 5.638-5.59963 5.638v5.6018c6.16463 0 11.16313-5.0307 11.16313-11.2398 0-6.20918-4.9966-11.2399-11.16313-11.2399z"/><path d="m20.5547 11.2379c0 6.2073 4.9966 11.238 11.1612 11.238v-5.598c-3.0927 0-5.5977-2.523-5.5977-5.638 0-3.11512 2.505-5.63812 5.5977-5.63812v-5.60178c-6.1646 0-11.1612 5.03072-11.1612 11.2379z"/><path d="m49.1115 22.4797h-5.0422c-6.1665 0-11.1631-5.0307-11.1631-11.2398 0-6.20918 4.9985-11.2399 11.1631-11.2399v5.60178c-3.0927 0-5.5996 2.523-5.5996 5.63812 0 3.115 2.5069 5.638 5.5996 5.638h2.2661v-5.64h5.5522v11.238h-2.7761z"/><path d="m63.0641 3.34257-3.467 16.44503v.0037c-.3383 1.5756-1.688 2.0703-3.5906 2.0703l-.1237.524h15.0103l2.6702-6.3062h-.5529c-2.3029 3.6789-4.5111 5.6576-8.4401 5.6576h-2.8559l2.1792-10.2635h2.9176c2.2702 0 2.8559 1.2092 2.6703 3.6496h.5203l.7967-7.91477h-.553c-.5202 2.81417-1.1678 3.61657-3.376 3.61657h-2.8559l1.9937-9.42803h3.1323c3.8999 0 5.1877 1.67088 5.8025 5.65756h.5203v-6.306139h-15.0067l-.1237.523989c1.9027 0 3.0705.49467 2.7321 2.07029z"/><path d="m83.0141 20.6193-1.226-4.3897c-2.4265 3.9866-4.02 6.46-5.8608 6.46-1.1059 0-1.7789-.6192-1.7789-1.6709 0-.8977.5529-1.6709 1.6261-1.6709.6704 0 1.0326.2322 1.3513.4365.2504.1604.4739.3037.7988.3037.7385 0 1.6262-1.3301 3.6816-4.5766l-1.688-6.09c-.6767-2.41106-2.3647.49467-2.7321 3.3381l-.3384.0294c0-1.8248.7058-5.93612 3.0996-5.93612.9204 0 1.6589.61925 2.0555 2.07028l1.1969 4.38974c2.4229-3.98667 3.9908-6.46002 5.8607-6.46002 1.0732 0 1.779.61925 1.779 1.67088 0 .89774-.5821 1.67094-1.6589 1.67094-.6703 0-1.0326-.23222-1.3513-.4365-.2504-.16046-.4739-.30372-.7988-.30372-.7385 0-1.597 1.33012-3.6234 4.57662l1.6589 6.09c.6767 2.411 2.3938-.4947 2.7613-3.3381l.3056-.0293c0 1.8247-.6767 5.936-3.0996 5.936-.8913 0-1.6262-.6192-2.0264-2.0703z"/><g clip-rule="evenodd" fill-rule="evenodd"><path d="m94.1261 10.5129-3.1323 14.8987h-.0037c-.3383 1.5756-1.4115 2.0117-3.0086 2.041l-.0909.4947h8.5929l.0618-.4947c-2.7612 0-3.6198-.524-3.3142-2.008l.6767-3.1842c.7676.3408 1.6589.4947 2.6412.4947 4.912 0 8.564-5.5953 8.564-10.6959 0-3.52499-1.473-5.25451-3.132-5.25451-2.7617 0-4.2679 3.33811-6.7526 9.79811h-.1237l2.0264-9.64421h-.3675l-5.3696 1.88708.1237.43238c1.3205-.40307 2.9758-.46536 2.6084 1.23485zm8.4399 1.9164c0 3.3705-1.872 9.7668-5.5241 9.7688-1.2578-.0007-2.1776-.6526-2.7594-1.3924l.2385-.6458c1.9686-5.3339 4.234-11.4718 6.328-11.4718 1.226 0 1.717 1.7332 1.717 3.7412z"/><path d="m106.398 16.8476c0-4.9137 4.115-10.04731 8.564-10.04731 2.365 0 3.838 1.11392 3.838 2.68954 0 3.40037-5.741 5.28747-9.975 6.08997v.4031c0 3.3381 1.535 4.7928 3.805 4.7928s4.111-1.2349 5.894-3.7705l.243.1246c-1.717 3.6165-4.143 5.6245-7.367 5.6245-3.223 0-5.002-2.5356-5.002-5.903zm9.976-7.44938c0-1.01865-.462-2.00799-1.874-2.00799-3.285 0-5.341 4.23587-5.646 7.76087 5.464-1.5463 7.52-3.2136 7.52-5.74921z"/><path d="m129.139 6.80081c-4.911 0-8.592 5.62459-8.592 10.69589l-.008.0037c0 3.5249 1.474 5.2545 3.162 5.2545 2.794 0 4.3-3.3382 6.785-9.7982h.123l-1.411 6.6139c-.248 1.2056-.43 3.1843 1.349 3.1843 2.176 0 3.529-3.1843 4.111-4.7929l-.367-.0622c-1.044 2.378-2.027 3.2135-2.547 3.2135-.429 0-.491-.4031-.4-.8355l4.267-20.2778h-.367l-5.37 1.88708.124.43237c1.321-.40306 2.976-.46535 2.608 1.23485l-.796 3.74118c-.797-.34077-1.688-.49467-2.671-.49467zm2.057 2.61518c-1.97 5.32921-4.234 11.45181-6.353 11.45181l-.004-.0037c-1.255 0-1.717-1.7295-1.717-3.7082 0-3.3674 1.874-9.79813 5.526-9.79813 1.321 0 2.241.65223 2.794 1.3924z"/></g><path d="m137.37 19.5999 2.241-10.35508c.091-.37009.029-.80247-.401-.80247-.553 0-1.564.83545-2.608 3.21355l-.368-.0623c.583-1.60861 1.932-4.79282 4.082-4.79282 1.841 0 1.717 1.88708 1.441 3.1549l-2.241 10.35512c-.091.3701-.029.8025.4.8025.553 0 1.564-.8355 2.579-3.2136l.368.0623c-.582 1.6086-1.936 4.7928-4.082 4.7928-1.841 0-1.688-1.887-1.411-3.1512z"/><path d="m141.578.743896c1.011 0 1.503.897734 1.503 1.854104 0 1.26782-.706 2.28648-1.812 2.28648-1.012 0-1.503-.89774-1.503-1.8541 0-1.23485.706-2.286484 1.812-2.286484z"/><path d="m147.096 7.9148-2.426 11.4068h.007c-.429 1.9457.062 3.4297 1.873 3.4297 2.485 0 3.653-3.3381 4.235-5.009l-.367-.0916c-1.077 2.6273-2.121 3.5543-2.856 3.5543-.677 0-.891-.557-.739-1.3301l2.485-11.96376h3.314l.153-.74017h-3.285l1.011-4.75984h-.338c-1.197 2.56496-2.761 4.23585-5.064 5.03832l-.091.46535z"/><path d="m154.002 19.5999 2.241-10.35508c.091-.37009.029-.80247-.401-.80247-.553 0-1.564.83545-2.608 3.21355l-.367-.0623c.582-1.60861 1.931-4.79282 4.081-4.79282 1.841 0 1.717 1.88708 1.445 3.1549l-2.241 10.35512c-.091.3701-.029.8025.4.8025.553 0 1.564-.8355 2.579-3.2136l.368.0623c-.582 1.6086-1.936 4.7928-4.082 4.7928-1.841 0-1.688-1.887-1.412-3.1512z"/><path d="m158.203.743896c1.011 0 1.503.897734 1.503 1.854104 0 1.26782-.706 2.28648-1.812 2.28648-1.011 0-1.503-.89774-1.503-1.8541 0-1.23485.706-2.286484 1.812-2.286484z"/><path clip-rule="evenodd" d="m169.161 6.80029c-4.144 0-8.04 4.48131-8.04 9.36581h-.004c0 4.3604 2.212 6.5846 5.527 6.5846 4.176 0 8.072-4.4227 8.072-9.5527 0-4.01596-2.15-6.39771-5.555-6.39771zm3.041 6.18151c0 3.4622-1.687 9.21-5.4 9.2119-2.178-.0012-3.16-2.2874-3.16-5.6869 0-3.4004 1.626-9.14955 5.37-9.14955 2.27 0 3.19 2.16189 3.19 5.62455z" fill-rule="evenodd"/><path d="m186.564 19.5987 1.688-8.0393c.338-1.5463.276-3.05964-1.044-3.05964-2.595 0-5.363 7.88024-6.824 12.03874-.268.763-.492 1.4006-.663 1.8414h-2.823l2.762-13.13996c.276-1.26782-1.322-1.4547-3.01 2.41106l-.338-.0623c.583-1.60859 1.903-4.7928 4.053-4.7928 1.688 0 1.779 1.51333 1.44 3.1549l-2.179 10.2928h.124c.141-.3668.312-.842.51-1.3939 1.438-4.0063 4.328-12.0538 8.021-12.0538 2.365 0 2.823 2.38174 2.179 5.3791l-1.75 8.1309c-.276 1.2678 1.321 1.4511 3.009-2.411l.338.0623c-.582 1.6086-1.935 4.7928-4.082 4.7928-1.659 0-1.75-1.5463-1.411-3.1513z"/><path d="m194.3 17.9608c-.826 0-1.288.6193-1.288 1.3301l-.004-.0073c0 1.4547 1.288 3.4627 4.941 3.4627 2.364 0 4.973-1.3264 4.973-3.7705 0-1.1762-.611-2.1326-2.27-3.8035l-2.58-2.5979c-.673-.6779-1.226-1.451-1.226-2.5027 0-1.51331 1.135-2.71884 2.824-2.71884 2.109 0 1.963 1.31519 1.871 2.14744-.016.14806-.031.28084-.031.3882 0 .8941.706 1.2972 1.321 1.2972.858 0 1.321-.4947 1.321-1.42178 0-1.4547-1.659-2.96802-4.421-2.96802-2.393 0-5.064 1.26782-5.064 3.8658 0 1.1762.706 2.4733 2.241 4.0196l2.15 2.1656c.859.8648 1.903 1.9787 1.903 3.1842s-1.106 2.1656-2.947 2.1656c-2.628 0-2.491-1.6049-2.415-2.5042.012-.1302.021-.2457.021-.3393 0-1.0223-.494-1.3924-1.32-1.3924z"/></g></svg>

<svg width="205" height="28" viewBox="0 0 205 28" fill="none" xmlns="http://www.w3.org/2000/svg">
<g clip-path="url(#clip0_1742_50363)">
<path d="M7.81817 0H2.77609V0.00381992H0V11.2418H5.55217V5.60178H7.81817C10.9109 5.60178 13.4178 8.12478 13.4178 11.2399C13.4178 14.3549 10.9109 16.8779 7.81817 16.8779V22.4797C13.9828 22.4797 18.9813 17.449 18.9813 11.2399C18.9813 5.03072 13.9847 0 7.81817 0Z" fill="black"/>
<path d="M20.5547 11.2379C20.5547 17.4452 25.5513 22.4759 31.7159 22.4759V16.8779C28.6232 16.8779 26.1182 14.3549 26.1182 11.2399C26.1182 8.12478 28.6232 5.60178 31.7159 5.60178V0C25.5513 0 20.5547 5.03072 20.5547 11.2379Z" fill="black"/>
<path d="M49.1115 22.4797H44.0693C37.9028 22.4797 32.9062 17.449 32.9062 11.2399C32.9062 5.03072 37.9047 0 44.0693 0V5.60178C40.9766 5.60178 38.4697 8.12478 38.4697 11.2399C38.4697 14.3549 40.9766 16.8779 44.0693 16.8779H46.3354V11.2379H51.8876V22.4759H49.1115V22.4797Z" fill="black"/>
<path d="M63.0641 3.34257L59.5971 19.7876V19.7913C59.2588 21.3669 57.9091 21.8616 56.0065 21.8616L55.8828 22.3856H70.8931L73.5633 16.0794H73.0104C70.7075 19.7583 68.4993 21.737 64.5703 21.737H61.7144L63.8936 11.4735H66.8112C69.0814 11.4735 69.6671 12.6827 69.4815 15.1231H70.0018L70.7985 7.20833H70.2455C69.7253 10.0225 69.0777 10.8249 66.8695 10.8249H64.0136L66.0073 1.39687H69.1396C73.0395 1.39687 74.3273 3.06775 74.9421 7.05443H75.4624V0.748291H60.4557L60.332 1.27228C62.2347 1.27228 63.4025 1.76695 63.0641 3.34257Z" fill="black"/>
<path d="M83.0141 20.6193L81.7881 16.2296C79.3616 20.2162 77.7681 22.6896 75.9273 22.6896C74.8214 22.6896 74.1484 22.0704 74.1484 21.0187C74.1484 20.121 74.7013 19.3478 75.7745 19.3478C76.4449 19.3478 76.8071 19.58 77.1258 19.7843C77.3762 19.9447 77.5997 20.088 77.9246 20.088C78.6631 20.088 79.5508 18.7579 81.6062 15.5114L79.9182 9.4214C79.2415 7.01034 77.5535 9.91607 77.1861 12.7595L76.8477 12.7889C76.8477 10.9641 77.5535 6.85278 79.9473 6.85278C80.8677 6.85278 81.6062 7.47203 82.0028 8.92306L83.1997 13.3128C85.6226 9.32613 87.1905 6.85278 89.0604 6.85278C90.1336 6.85278 90.8394 7.47203 90.8394 8.52366C90.8394 9.4214 90.2573 10.1946 89.1805 10.1946C88.5102 10.1946 88.1479 9.96238 87.8292 9.7581C87.5788 9.59764 87.3553 9.45438 87.0304 9.45438C86.2919 9.45438 85.4334 10.7845 83.407 14.031L85.0659 20.121C85.7426 22.532 87.4597 19.6263 87.8272 16.7829L88.1328 16.7536C88.1328 18.5783 87.4561 22.6896 85.0332 22.6896C84.1419 22.6896 83.407 22.0704 83.0068 20.6193H83.0141Z" fill="black"/>
<path fill-rule="evenodd" clip-rule="evenodd" d="M94.1261 10.5129L90.9938 25.4116H90.9901C90.6518 26.9872 89.5786 27.4233 87.9815 27.4526L87.8906 27.9473H96.4835L96.5453 27.4526C93.7841 27.4526 92.9255 26.9286 93.2311 25.4446L93.9078 22.2604C94.6754 22.6012 95.5667 22.7551 96.549 22.7551C101.461 22.7551 105.113 17.1598 105.113 12.0592C105.113 8.53421 103.64 6.80469 101.981 6.80469C99.2193 6.80469 97.7131 10.1428 95.2284 16.6028H95.1047L97.1311 6.95859H96.7636L91.394 8.84567L91.5177 9.27805C92.8382 8.87498 94.4935 8.81269 94.1261 10.5129ZM102.566 12.4293C102.566 15.7998 100.694 22.1961 97.0419 22.1981C95.7841 22.1974 94.8643 21.5455 94.2825 20.8057L94.521 20.1599C96.4896 14.826 98.755 8.6881 100.849 8.6881C102.075 8.6881 102.566 10.4213 102.566 12.4293Z" fill="black"/>
<path fill-rule="evenodd" clip-rule="evenodd" d="M106.398 16.8476C106.398 11.9339 110.513 6.80029 114.962 6.80029C117.327 6.80029 118.8 7.91421 118.8 9.48983C118.8 12.8902 113.059 14.7773 108.825 15.5798V15.9829C108.825 19.321 110.36 20.7757 112.63 20.7757C114.9 20.7757 116.741 19.5408 118.524 17.0052L118.767 17.1298C117.05 20.7463 114.624 22.7543 111.4 22.7543C108.177 22.7543 106.398 20.2187 106.398 16.8513V16.8476ZM116.374 9.39822C116.374 8.37957 115.912 7.39023 114.5 7.39023C111.215 7.39023 109.159 11.6261 108.854 15.1511C114.318 13.6048 116.374 11.9375 116.374 9.40189V9.39822Z" fill="black"/>
<path fill-rule="evenodd" clip-rule="evenodd" d="M129.139 6.80081C124.228 6.80081 120.547 12.4254 120.547 17.4967L120.539 17.5004C120.539 21.0253 122.013 22.7549 123.701 22.7549C126.495 22.7549 128.001 19.4167 130.486 12.9567H130.609L129.198 19.5706C128.95 20.7762 128.768 22.7549 130.547 22.7549C132.723 22.7549 134.076 19.5706 134.658 17.962L134.291 17.8998C133.247 20.2778 132.264 21.1133 131.744 21.1133C131.315 21.1133 131.253 20.7102 131.344 20.2778L135.611 0H135.244L129.874 1.88708L129.998 2.31945C131.319 1.91639 132.974 1.8541 132.606 3.5543L131.81 7.29548C131.013 6.95471 130.122 6.80081 129.139 6.80081ZM131.196 9.41599C129.226 14.7452 126.962 20.8678 124.843 20.8678L124.839 20.8641C123.584 20.8641 123.122 19.1346 123.122 17.1559C123.122 13.7885 124.996 7.35777 128.648 7.35777C129.969 7.35777 130.889 8.01 131.442 8.75017L131.196 9.41599Z" fill="black"/>
<path d="M137.37 19.5999L139.611 9.24482C139.702 8.87473 139.64 8.44235 139.21 8.44235C138.657 8.44235 137.646 9.2778 136.602 11.6559L136.234 11.5936C136.817 9.98499 138.166 6.80078 140.316 6.80078C142.157 6.80078 142.033 8.68786 141.757 9.95568L139.516 20.3108C139.425 20.6809 139.487 21.1133 139.916 21.1133C140.469 21.1133 141.48 20.2778 142.495 17.8997L142.863 17.962C142.281 19.5706 140.927 22.7548 138.781 22.7548C136.94 22.7548 137.093 20.8678 137.37 19.6036V19.5999Z" fill="black"/>
<path d="M141.578 0.743896C142.589 0.743896 143.081 1.64163 143.081 2.598C143.081 3.86582 142.375 4.88448 141.269 4.88448C140.257 4.88448 139.766 3.98674 139.766 3.03038C139.766 1.79553 140.472 0.743896 141.578 0.743896Z" fill="black"/>
<path d="M147.096 7.9148L144.67 19.3216H144.677C144.248 21.2673 144.739 22.7513 146.55 22.7513C149.035 22.7513 150.203 19.4132 150.785 17.7423L150.418 17.6507C149.341 20.278 148.297 21.205 147.562 21.205C146.885 21.205 146.671 20.648 146.823 19.8749L149.308 7.91114H152.622L152.775 7.17097H149.49L150.501 2.41113H150.163C148.966 4.97609 147.402 6.64698 145.099 7.44945L145.008 7.9148H147.096Z" fill="black"/>
<path d="M154.002 19.5999L156.243 9.24482C156.334 8.87473 156.272 8.44235 155.842 8.44235C155.289 8.44235 154.278 9.2778 153.234 11.6559L152.867 11.5936C153.449 9.98499 154.798 6.80078 156.948 6.80078C158.789 6.80078 158.665 8.68786 158.393 9.95568L156.152 20.3108C156.061 20.6809 156.123 21.1133 156.552 21.1133C157.105 21.1133 158.116 20.2778 159.131 17.8997L159.499 17.962C158.917 19.5706 157.563 22.7548 155.417 22.7548C153.576 22.7548 153.729 20.8678 154.005 19.6036L154.002 19.5999Z" fill="black"/>
<path d="M158.203 0.743896C159.214 0.743896 159.706 1.64163 159.706 2.598C159.706 3.86582 159 4.88448 157.894 4.88448C156.883 4.88448 156.391 3.98674 156.391 3.03038C156.391 1.79553 157.097 0.743896 158.203 0.743896Z" fill="black"/>
<path fill-rule="evenodd" clip-rule="evenodd" d="M169.161 6.80029C165.017 6.80029 161.121 11.2816 161.121 16.1661H161.117C161.117 20.5265 163.329 22.7507 166.644 22.7507C170.82 22.7507 174.716 18.328 174.716 13.198C174.716 9.18204 172.566 6.80029 169.161 6.80029ZM172.202 12.9818C172.202 16.444 170.515 22.1918 166.802 22.1937C164.624 22.1925 163.642 19.9063 163.642 16.5068C163.642 13.1064 165.268 7.35725 169.012 7.35725C171.282 7.35725 172.202 9.51914 172.202 12.9818Z" fill="black"/>
<path d="M186.564 19.5987L188.252 11.5594C188.59 10.0131 188.528 8.49976 187.208 8.49976C184.613 8.49976 181.845 16.38 180.384 20.5385C180.116 21.3015 179.892 21.9391 179.721 22.3799H176.898L179.66 9.23994C179.936 7.97212 178.338 7.78524 176.65 11.651L176.312 11.5887C176.895 9.98011 178.215 6.7959 180.365 6.7959C182.053 6.7959 182.144 8.30923 181.805 9.9508L179.626 20.2436H179.75C179.891 19.8768 180.062 19.4016 180.26 18.8497C181.698 14.8434 184.588 6.7959 188.281 6.7959C190.646 6.7959 191.104 9.17764 190.46 12.175L188.71 20.3059C188.434 21.5737 190.031 21.757 191.719 17.8949L192.057 17.9572C191.475 19.5658 190.122 22.75 187.975 22.75C186.316 22.75 186.225 21.2037 186.564 19.5987Z" fill="black"/>
<path d="M194.3 17.9608C193.474 17.9608 193.012 18.5801 193.012 19.2909L193.008 19.2836C193.008 20.7383 194.296 22.7463 197.949 22.7463C200.313 22.7463 202.922 21.4199 202.922 18.9758C202.922 17.7996 202.311 16.8432 200.652 15.1723L198.072 12.5744C197.399 11.8965 196.846 11.1234 196.846 10.0717C196.846 8.55839 197.981 7.35286 199.67 7.35286C201.779 7.35286 201.633 8.66805 201.541 9.5003C201.525 9.64836 201.51 9.78114 201.51 9.8885C201.51 10.7826 202.216 11.1857 202.831 11.1857C203.689 11.1857 204.152 10.691 204.152 9.76392C204.152 8.30922 202.493 6.7959 199.731 6.7959C197.338 6.7959 194.667 8.06372 194.667 10.6617C194.667 11.8379 195.373 13.135 196.908 14.6813L199.058 16.8469C199.917 17.7117 200.961 18.8256 200.961 20.0311C200.961 21.2366 199.855 22.1967 198.014 22.1967C195.386 22.1967 195.523 20.5918 195.599 19.6925C195.611 19.5623 195.62 19.4468 195.62 19.3532C195.62 18.3309 195.126 17.9608 194.3 17.9608Z" fill="black"/>
</g>
<defs>
<clipPath id="clip0_1742_50363">
<rect width="205" height="28" fill="white"/>
</clipPath>
</defs>
</svg>
